X: 421
T: Neeps like Sucker, whae'll buy Neeps *
C: by J Pringle
B: John Pringle "Collection of Reels Strathspeys & Jigs", 1801 p.42#1
Z: 2011 John Chambers <jc:trillian.mit.edu>
Q: "Slow with much Expression"
R: air
M: 6/8
L: 1/8
K: Bb
V: 1
[|\
!f!f2{=e}f !p!d<Bz | e2{=e}g f3 | !f!f2~f !p!d<Bz | c2f B>cd/e/ |\
!f!{g}f2~f !p!d<Bz | e2{=e}g f>ga/b/ | f2~f d<Bz | c2{=e}f B3 ||
!f!c2~c !p!A<Fz | {e}d2B {A}G3 | e2e d<fz | g>ab/d/ {d}c3 |\
!f!f2~f d<fz | ~g(f/=e/).f/.a/ Hb2a/g/ | !p!{g}f2~f d<Bz | c2{=e}f {A}B3 |]
V: 2 clef=bass middle=d
[|\
Bdf zbB | e2=e fcF | Bdf zbB | efF Bbz |\
Bdf BbB | e2=e fFz | Bdf zbB | efF B3 ||
FAc zfF | B2d e2E | fac' fbd' | e2=e f/e/f/_e/d/c/ |\
Bdf zbB | e2f Hg2z | Bdf zbB | efF B3 |]
%%text * This tune is made from the women crying those Articles in the streets of Edinburgh

%%sep 2 1 500

